zondicons/svg/globe.svg

<svg width="20px" height="20px" viewBox="0 0 20 20" version="1.1" xmlns="http://www.w3.org/2000/svg" xmlns:xlink="http://www.w3.org/1999/xlink"><title>globe</title><desc>Created with Sketch.</desc><defs></defs><g id="Page-1" stroke="none" stroke-width="1" fill="none" fill-rule="evenodd"><g id="globe" fill="#000000"><path d="M12,17.747965 C13.5724486,17.3432447 14.957794,16.4724606 16,15.2916488 L16,9 L15.9979131,9 C14.8944962,9 14,8.10414219 14,7.0026083 L14,3.07025756 C13.0967855,2.54777616 12.0819404,2.19680981 11,2.06189375 L11,2.9951185 C11,4.10238398 10.0998238,5 9.00798298,5 L9,5 L9,6.00189865 C9,7.10541955 8.10414219,8 7.0026083,8 L7,8 L7,10 L10.0020869,10 C11.1055038,10 12,10.8938998 12,12.0048815 L12,13.5024408 L12,17.747965 L12,17.747965 Z M8,17.747965 C4.54954557,16.8598794 2,13.7276789 2,10 C2,9.30940086 2.08750601,8.63923984 2.25203497,8 L4,8 L4,10.501424 C4,11.3349702 4.67157288,12 5.5,12 L6,12 L6,12.9951185 C6,14.1061002 6.89449617,15 7.99791312,15 L8,15 L8,17.747965 L8,17.747965 Z M10,20 C15.5228475,20 20,15.5228475 20,10 C20,4.4771525 15.5228475,0 10,0 C4.4771525,0 0,4.4771525 0,10 C0,15.5228475 4.4771525,20 10,20 L10,20 Z" id="Combined-Shape"></path></g></g></svg>

<svg xmlns="http://www.w3.org/2000/svg" viewBox="0 0 20 20"><path d="M10 20a10 10 0 1 1 0-20 10 10 0 0 1 0 20zm2-2.25a8 8 0 0 0 4-2.46V9a2 2 0 0 1-2-2V3.07a7.95 7.95 0 0 0-3-1V3a2 2 0 0 1-2 2v1a2 2 0 0 1-2 2v2h3a2 2 0 0 1 2 2v5.75zm-4 0V15a2 2 0 0 1-2-2v-1h-.5A1.5 1.5 0 0 1 4 10.5V8H2.25A8.01 8.01 0 0 0 8 17.75z"/></svg>
